X: 225
T: No_80_Bird_Dance_Song_(c).krn
N: Derived from No_80_Bird_Dance_Song_(c).krn
%%abc-version 2.0
%%abcx-abcm2ps-target-version 5.9.1 (29 Sep 2008)
%%abc-creator hum2abc beta
%%abcx-conversion-date 2019/03/15 08:38:45
%%humdrum-veritas 974938497
%%humdrum-veritas-data 2469135724
%%linebreak <none>
%%barnumbers 0
L: 1/16
M: 3/4
K: Eb clef=bass
[K:clef=bass][M:3/4]z8z2 G,2 ]|:  
(B,6A,3/)G,/ G,2B,B, ||  
[M:2/4]B,6B,2 ||  
[M:3/4](B,(G,3) G,3)G, G,2G,G, ||  
[M:2/4](G,2E,2) G,G,3 ||  
[M:3/4]E,7E, E,2E,E, ||  
[M:2/4]G,4A,G,3 | 
E,6E,2 | 
E,2(E,B,,) E,3B, ||  
[M:3/4]G,6G,2 G,2G,G, ||  
[M:2/4](G,2E,2) G,G,3 ||  
[M:3/4]E,4z2 E,2 E,2E,E, ||  
[M:2/4]G,4A,G,3 ||  
[M:3/4]E,6E,2 E,2E,E, ||  
[M:2/4]B,,4z3 B, ||  
[M:3/4](B,6A,3/)G,/ G,2B,B, ||  
[M:2/4]B,6B,2 ||  
[M:3/4](B,(G,3) G,3)G, G,2G,G, ||  
[M:2/4](G,2E,2) G,G,3 ||  
[M:3/4]E,7E, E,2E,E, ||  
[M:2/4]G,4A,G,3 ||  
[M:3/4]E,6E,2 E,2E,E, [I:setbarnb 23]||  
[M:2/4]B,,4z3 B, :|]  
[M:3/4]E,6E,2 E,2E,B,, | 
E,8z4 |]  



